resources/svg/solid/basketball.svg

<svg xmlns="http://www.w3.org/2000/svg" fill="currentColor" stroke="none" viewBox="0 0 24 24"><path d="M18.328 4.258a9.953 9.953 0 0 0-5.949-2.235 8.99 8.99 0 0 1-1.835 7.107L12 10.586l6.328-6.328zM7.701 9.115 4.258 5.672a9.938 9.938 0 0 0-2.112 4.704 7.007 7.007 0 0 0 5.555-1.261zm12.041-3.443L13.414 12l1.456 1.456a8.993 8.993 0 0 1 7.107-1.835 9.953 9.953 0 0 0-2.235-5.949zm2.112 7.952a7.007 7.007 0 0 0-5.555 1.261l3.443 3.443a9.924 9.924 0 0 0 2.112-4.704zM9.115 7.701a7.007 7.007 0 0 0 1.261-5.555 9.928 9.928 0 0 0-4.704 2.112l3.443 3.443zm4.509 14.153a9.936 9.936 0 0 0 4.704-2.111L14.885 16.3a7.003 7.003 0 0 0-1.261 5.554zM12 13.414l-6.328 6.328a9.953 9.953 0 0 0 5.949 2.235 8.99 8.99 0 0 1 1.835-7.107L12 13.414zm-7.742 4.914L10.586 12 9.13 10.544a8.993 8.993 0 0 1-7.107 1.835 9.953 9.953 0 0 0 2.235 5.949z"/></svg>

<svg xmlns="http://www.w3.org/2000/svg" fill="currentColor" stroke="none" viewBox="0 0 24 24"><path d="M18.328 4.258c-1.73-1.417-3.829-2.155-5.949-2.235.411 2.463-.197 5.061-1.835 7.107L12 10.586 18.328 4.258zM7.701 9.115L4.258 5.672C3.12 7.063 2.422 8.69 2.146 10.376 4.051 10.753 6.079 10.328 7.701 9.115zM19.742 5.672L13.414 12l1.456 1.456c2.047-1.638 4.645-2.246 7.107-1.835C21.897 9.501 21.159 7.402 19.742 5.672zM21.854 13.624c-1.904-.377-3.933.048-5.555 1.261l3.443 3.443C20.881 16.938 21.578 15.31 21.854 13.624zM9.115 7.701c1.213-1.622 1.638-3.65 1.261-5.555C8.69 2.422 7.063 3.119 5.672 4.258L9.115 7.701zM13.624 21.854c1.686-.275 3.313-.974 4.704-2.111l-3.443-3.443C13.672 17.921 13.247 19.949 13.624 21.854zM12 13.414l-6.328 6.328c1.73 1.417 3.829 2.155 5.949 2.235-.411-2.463.197-5.061 1.835-7.107L12 13.414zM4.258 18.328L10.586 12 9.13 10.544c-2.047 1.638-4.645 2.246-7.107 1.835C2.103 14.499 2.841 16.598 4.258 18.328z"/></svg>
